X: 23897
T: Loch Earn
R: reel
M: 4/4
K: Gmajor
g2 dB G2 BG|E2 AE FDDF|g2 dB G2 BG|EAFD G2 G:|
g|efge fgba|gfge fddf|efge fgag|fefd g2 Bd|
efge dBgB|ceBd AFED|GABG EGce|dBcA G2 G||

